X:67
T:67 John of Paris
C:Shoosmith MS
N:Per STB. I think there should be a DC al Fine and the end of the second part
I:abc2nwc
M:6/8
L:1/8
K:G
d/2c/2|B2B BAB|d2B BAB|c2e g2e|d2B BAB|c2A AGA|B2G GFG|E2e edc|1B2G G2:|2B2G G3|]
d2c Bcd|e2f g2a|b2a gfe|d2c Bcd|e2e ecA|d2d dBG|c2A B2G|A2F D2z:|

